Icons/icons/map-pin.svg

<svg width="24" height="24" viewBox="0 0 24 24" fill="none" xmlns="http://www.w3.org/2000/svg">
<path fill-rule="evenodd" clip-rule="evenodd" d="M12 2C9.87827 2 7.84344 2.84285 6.34315 4.34315C4.84285 5.84344 4 7.87827 4 10C4 13.0981 6.01574 16.1043 8.22595 18.4373C9.31061 19.5822 10.3987 20.5195 11.2167 21.1708C11.5211 21.4133 11.787 21.6152 12 21.7726C12.213 21.6152 12.4789 21.4133 12.7833 21.1708C13.6013 20.5195 14.6894 19.5822 15.774 18.4373C17.9843 16.1043 20 13.0981 20 10C20 7.87827 19.1571 5.84344 17.6569 4.34315C16.1566 2.84285 14.1217 2 12 2ZM12 23C11.4453 23.8321 11.445 23.8319 11.4448 23.8317L11.4419 23.8298L11.4352 23.8253L11.4123 23.8098C11.3928 23.7966 11.3651 23.7776 11.3296 23.753C11.2585 23.7038 11.1565 23.6321 11.0278 23.5392C10.7705 23.3534 10.4064 23.0822 9.97082 22.7354C9.10133 22.043 7.93939 21.0428 6.77405 19.8127C4.48426 17.3958 2 13.9019 2 10C2 7.34784 3.05357 4.8043 4.92893 2.92893C6.8043 1.05357 9.34784 0 12 0C14.6522 0 17.1957 1.05357 19.0711 2.92893C20.9464 4.8043 22 7.34784 22 10C22 13.9019 19.5157 17.3958 17.226 19.8127C16.0606 21.0428 14.8987 22.043 14.0292 22.7354C13.5936 23.0822 13.2295 23.3534 12.9722 23.5392C12.8435 23.6321 12.7415 23.7038 12.6704 23.753C12.6349 23.7776 12.6072 23.7966 12.5877 23.8098L12.5648 23.8253L12.5581 23.8298L12.556 23.8312C12.5557 23.8314 12.5547 23.8321 12 23ZM12 23L12.5547 23.8321C12.2188 24.056 11.7807 24.0556 11.4448 23.8317L12 23Z" fill="#69B99D"/>
<path fill-rule="evenodd" clip-rule="evenodd" d="M17 10C17 12.7614 14.7614 15 12 15C9.23858 15 7 12.7614 7 10C7 7.23858 9.23858 5 12 5C14.7614 5 17 7.23858 17 10ZM15 10C15 11.6569 13.6569 13 12 13C10.3431 13 9 11.6569 9 10C9 8.34315 10.3431 7 12 7C13.6569 7 15 8.34315 15 10Z" fill="#69B99D"/>
</svg>

<!-- Generated by IcoMoon.io -->
<svg version="1.1" xmlns="http://www.w3.org/2000/svg" width="24" height="24" viewBox="0 0 24 24">
<title>map-pin</title>
<path d="M12 2c-2.122 0-4.157 0.843-5.657 2.343s-2.343 3.535-2.343 5.657c0 3.098 2.016 6.104 4.226 8.437 1.085 1.145 2.173 2.082 2.991 2.733 0.304 0.243 0.57 0.444 0.783 0.602 0.213-0.157 0.479-0.359 0.783-0.602 0.818-0.651 1.906-1.589 2.991-2.733 2.21-2.333 4.226-5.339 4.226-8.437 0-2.122-0.843-4.157-2.343-5.657s-3.535-2.343-5.657-2.343zM12 23c-0.555 0.832-0.555 0.832-0.555 0.832l-0.003-0.002-0.007-0.005-0.023-0.015c-0.020-0.013-0.047-0.032-0.083-0.057-0.071-0.049-0.173-0.121-0.302-0.214-0.257-0.186-0.621-0.457-1.057-0.804-0.869-0.692-2.031-1.693-3.197-2.923-2.29-2.417-4.774-5.911-4.774-9.813 0-2.652 1.054-5.196 2.929-7.071s4.419-2.929 7.071-2.929c2.652 0 5.196 1.054 7.071 2.929s2.929 4.419 2.929 7.071c0 3.902-2.484 7.396-4.774 9.813-1.165 1.23-2.327 2.23-3.197 2.923-0.436 0.347-0.8 0.618-1.057 0.804-0.129 0.093-0.231 0.165-0.302 0.214-0.036 0.025-0.063 0.044-0.083 0.057l-0.023 0.015-0.007 0.005-0.002 0.001c-0 0-0.001 0.001-0.556-0.831zM12 23l0.555 0.832c-0.336 0.224-0.774 0.224-1.11-0l0.555-0.832z"></path>
<path d="M17 10c0-2.761-2.239-5-5-5s-5 2.239-5 5c0 2.761 2.239 5 5 5s5-2.239 5-5zM15 10c0 1.657-1.343 3-3 3s-3-1.343-3-3c0-1.657 1.343-3 3-3s3 1.343 3 3z"></path>
</svg>
